images/10541888.svg

<?xml version="1.0" encoding="UTF-8"?>
<svg xmlns="http://www.w3.org/2000/svg" xmlns:xlink="http://www.w3.org/1999/xlink" width="300pt" height="300pt" viewBox="0 0 300 300" version="1.1">
<defs>
<g>
<symbol overflow="visible" id="glyph0-0">
<path style="stroke:none;" d="M 0.796875 2.828125 L 0.796875 -11.28125 L 8.796875 -11.28125 L 8.796875 2.828125 Z M 1.703125 1.9375 L 7.90625 1.9375 L 7.90625 -10.390625 L 1.703125 -10.390625 Z M 1.703125 1.9375 "/>
</symbol>
<symbol overflow="visible" id="glyph0-1">
<path style="stroke:none;" d="M 6.3125 -10.59375 C 5.164062 -10.59375 4.253906 -10.164062 3.578125 -9.3125 C 2.898438 -8.457031 2.5625 -7.296875 2.5625 -5.828125 C 2.5625 -4.359375 2.898438 -3.195312 3.578125 -2.34375 C 4.253906 -1.488281 5.164062 -1.0625 6.3125 -1.0625 C 7.457031 -1.0625 8.363281 -1.488281 9.03125 -2.34375 C 9.695312 -3.195312 10.03125 -4.359375 10.03125 -5.828125 C 10.03125 -7.296875 9.695312 -8.457031 9.03125 -9.3125 C 8.363281 -10.164062 7.457031 -10.59375 6.3125 -10.59375 Z M 6.3125 -11.875 C 7.945312 -11.875 9.253906 -11.328125 10.234375 -10.234375 C 11.210938 -9.140625 11.703125 -7.671875 11.703125 -5.828125 C 11.703125 -3.984375 11.210938 -2.507812 10.234375 -1.40625 C 9.253906 -0.3125 7.945312 0.234375 6.3125 0.234375 C 4.664062 0.234375 3.351562 -0.3125 2.375 -1.40625 C 1.394531 -2.507812 0.90625 -3.984375 0.90625 -5.828125 C 0.90625 -7.671875 1.394531 -9.140625 2.375 -10.234375 C 3.351562 -11.328125 4.664062 -11.875 6.3125 -11.875 Z M 6.3125 -11.875 "/>
</symbol>
<symbol overflow="visible" id="glyph0-2">
<path style="stroke:none;" d="M 1.578125 -11.671875 L 3.703125 -11.671875 L 8.875 -1.90625 L 8.875 -11.671875 L 10.40625 -11.671875 L 10.40625 0 L 8.28125 0 L 3.109375 -9.765625 L 3.109375 0 L 1.578125 0 Z M 1.578125 -11.671875 "/>
</symbol>
<symbol overflow="visible" id="glyph0-3">
<path style="stroke:none;" d="M 1.578125 -11.671875 L 3.15625 -11.671875 L 3.15625 -6.890625 L 8.890625 -6.890625 L 8.890625 -11.671875 L 10.46875 -11.671875 L 10.46875 0 L 8.890625 0 L 8.890625 -5.5625 L 3.15625 -5.5625 L 3.15625 0 L 1.578125 0 Z M 1.578125 -11.671875 "/>
</symbol>
</g>
</defs>
<g id="surface30885">
<rect x="0" y="0" width="300" height="300" style="fill:rgb(100%,100%,100%);fill-opacity:1;stroke:none;"/>
<path style="fill:none;stroke-width:1.2;stroke-linecap:butt;stroke-linejoin:miter;stroke:rgb(0%,0%,0%);stroke-opacity:1;stroke-miterlimit:10;" d="M 35.273438 229.066406 L 45.175781 212.703125 "/>
<path style="fill:none;stroke-width:1.2;stroke-linecap:butt;stroke-linejoin:miter;stroke:rgb(100%,0%,0%);stroke-opacity:1;stroke-miterlimit:10;" d="M 45.175781 212.703125 L 55.074219 196.339844 "/>
<path style="fill:none;stroke-width:1.2;stroke-linecap:butt;stroke-linejoin:miter;stroke:rgb(100%,0%,0%);stroke-opacity:1;stroke-miterlimit:10;" d="M 55.074219 196.339844 L 74.195312 196.734375 "/>
<path style="fill:none;stroke-width:1.2;stroke-linecap:butt;stroke-linejoin:miter;stroke:rgb(0%,0%,0%);stroke-opacity:1;stroke-miterlimit:10;" d="M 74.195312 196.734375 L 93.316406 197.125 "/>
<path style=" stroke:none;fill-rule:nonzero;fill:rgb(100%,100%,100%);fill-opacity:1;" d="M 49.074219 186.839844 L 62.074219 186.839844 L 62.074219 205.839844 L 49.074219 205.839844 Z M 49.074219 186.839844 "/>
<g style="fill:rgb(100%,0%,0%);fill-opacity:1;">
  <use xlink:href="#glyph0-1" x="49.074219" y="201.691406"/>
</g>
<path style="fill:none;stroke-width:1.2;stroke-linecap:butt;stroke-linejoin:miter;stroke:rgb(0%,0%,0%);stroke-opacity:1;stroke-miterlimit:10;" d="M 89.375 199.296875 L 98.59375 216.050781 "/>
<path style="fill:none;stroke-width:1.2;stroke-linecap:butt;stroke-linejoin:miter;stroke:rgb(100%,0%,0%);stroke-opacity:1;stroke-miterlimit:10;" d="M 98.59375 216.050781 L 107.816406 232.808594 "/>
<path style="fill:none;stroke-width:1.2;stroke-linecap:butt;stroke-linejoin:miter;stroke:rgb(0%,0%,0%);stroke-opacity:1;stroke-miterlimit:10;" d="M 97.257812 194.957031 L 106.480469 211.710938 "/>
<path style="fill:none;stroke-width:1.2;stroke-linecap:butt;stroke-linejoin:miter;stroke:rgb(100%,0%,0%);stroke-opacity:1;stroke-miterlimit:10;" d="M 106.480469 211.710938 L 115.699219 228.46875 "/>
<path style="fill:none;stroke-width:1.2;stroke-linecap:butt;stroke-linejoin:miter;stroke:rgb(0%,0%,0%);stroke-opacity:1;stroke-miterlimit:10;" d="M 93.316406 197.125 L 113.117188 164.398438 "/>
<path style=" stroke:none;fill-rule:nonzero;fill:rgb(100%,100%,100%);fill-opacity:1;" d="M 105.757812 221.136719 L 118.757812 221.136719 L 118.757812 240.136719 L 105.757812 240.136719 Z M 105.757812 221.136719 "/>
<g style="fill:rgb(100%,0%,0%);fill-opacity:1;">
  <use xlink:href="#glyph0-1" x="105.757812" y="235.988281"/>
</g>
<path style="fill:none;stroke-width:1.2;stroke-linecap:butt;stroke-linejoin:miter;stroke:rgb(0%,0%,0%);stroke-opacity:1;stroke-miterlimit:10;" d="M 113.117188 164.398438 L 151.359375 165.183594 "/>
<path style="fill:none;stroke-width:1.2;stroke-linecap:butt;stroke-linejoin:miter;stroke:rgb(0%,0%,0%);stroke-opacity:1;stroke-miterlimit:10;" d="M 113.117188 164.398438 L 94.675781 130.890625 "/>
<path style="fill:none;stroke-width:1.2;stroke-linecap:butt;stroke-linejoin:miter;stroke:rgb(0%,0%,0%);stroke-opacity:1;stroke-miterlimit:10;" d="M 151.359375 165.183594 L 171.160156 132.460938 "/>
<path style="fill:none;stroke-width:1.2;stroke-linecap:butt;stroke-linejoin:miter;stroke:rgb(0%,0%,0%);stroke-opacity:1;stroke-miterlimit:10;" d="M 151.359375 165.183594 L 160.582031 181.941406 "/>
<path style="fill:none;stroke-width:1.2;stroke-linecap:butt;stroke-linejoin:miter;stroke:rgb(0%,0%,100%);stroke-opacity:1;stroke-miterlimit:10;" d="M 160.582031 181.941406 L 169.800781 198.695312 "/>
<path style="fill:none;stroke-width:1.2;stroke-linecap:butt;stroke-linejoin:miter;stroke:rgb(0%,0%,0%);stroke-opacity:1;stroke-miterlimit:10;" d="M 171.160156 132.460938 L 152.71875 98.949219 "/>
<path style="fill:none;stroke-width:1.2;stroke-linecap:butt;stroke-linejoin:miter;stroke:rgb(0%,0%,0%);stroke-opacity:1;stroke-miterlimit:10;" d="M 177.203125 124.769531 L 162.449219 97.960938 "/>
<path style="fill:none;stroke-width:1.2;stroke-linecap:butt;stroke-linejoin:miter;stroke:rgb(0%,0%,0%);stroke-opacity:1;stroke-miterlimit:10;" d="M 209.402344 133.246094 L 171.160156 132.460938 "/>
<path style="fill:none;stroke-width:1.2;stroke-linecap:butt;stroke-linejoin:miter;stroke:rgb(0%,0%,0%);stroke-opacity:1;stroke-miterlimit:10;" d="M 152.71875 98.949219 L 172.519531 66.222656 "/>
<path style="fill:none;stroke-width:1.2;stroke-linecap:butt;stroke-linejoin:miter;stroke:rgb(0%,0%,0%);stroke-opacity:1;stroke-miterlimit:10;" d="M 172.519531 66.222656 L 210.761719 67.007812 "/>
<path style="fill:none;stroke-width:1.2;stroke-linecap:butt;stroke-linejoin:miter;stroke:rgb(0%,0%,0%);stroke-opacity:1;stroke-miterlimit:10;" d="M 176.160156 75.300781 L 206.753906 75.925781 "/>
<path style="fill:none;stroke-width:1.2;stroke-linecap:butt;stroke-linejoin:miter;stroke:rgb(0%,0%,0%);stroke-opacity:1;stroke-miterlimit:10;" d="M 210.761719 67.007812 L 229.203125 100.519531 "/>
<path style="fill:none;stroke-width:1.2;stroke-linecap:butt;stroke-linejoin:miter;stroke:rgb(0%,0%,0%);stroke-opacity:1;stroke-miterlimit:10;" d="M 229.203125 100.519531 L 209.402344 133.246094 "/>
<path style="fill:none;stroke-width:1.2;stroke-linecap:butt;stroke-linejoin:miter;stroke:rgb(0%,0%,0%);stroke-opacity:1;stroke-miterlimit:10;" d="M 219.523438 99.132812 L 203.683594 125.3125 "/>
<path style="fill:none;stroke-width:1.2;stroke-linecap:butt;stroke-linejoin:miter;stroke:rgb(0%,0%,100%);stroke-opacity:1;stroke-miterlimit:10;" d="M 169.800781 198.695312 L 188.921875 199.089844 "/>
<path style="fill:none;stroke-width:1.2;stroke-linecap:butt;stroke-linejoin:miter;stroke:rgb(0%,0%,0%);stroke-opacity:1;stroke-miterlimit:10;" d="M 188.921875 199.089844 L 208.042969 199.480469 "/>
<path style=" stroke:none;fill-rule:nonzero;fill:rgb(100%,100%,100%);fill-opacity:1;" d="M 157.800781 189.195312 L 181.800781 189.195312 L 181.800781 208.195312 L 157.800781 208.195312 Z M 157.800781 189.195312 "/>
<g style="fill:rgb(0%,0%,100%);fill-opacity:1;">
  <use xlink:href="#glyph0-2" x="157.800781" y="204.046875"/>
  <use xlink:href="#glyph0-3" x="169.769531" y="204.046875"/>
</g>
<path style="fill:none;stroke-width:1.2;stroke-linecap:butt;stroke-linejoin:miter;stroke:rgb(0%,0%,0%);stroke-opacity:1;stroke-miterlimit:10;" d="M 211.894531 201.8125 L 221.792969 185.449219 "/>
<path style="fill:none;stroke-width:1.2;stroke-linecap:butt;stroke-linejoin:miter;stroke:rgb(100%,0%,0%);stroke-opacity:1;stroke-miterlimit:10;" d="M 221.792969 185.449219 L 231.695312 169.085938 "/>
<path style="fill:none;stroke-width:1.2;stroke-linecap:butt;stroke-linejoin:miter;stroke:rgb(0%,0%,0%);stroke-opacity:1;stroke-miterlimit:10;" d="M 204.191406 197.152344 L 214.09375 180.789062 "/>
<path style="fill:none;stroke-width:1.2;stroke-linecap:butt;stroke-linejoin:miter;stroke:rgb(100%,0%,0%);stroke-opacity:1;stroke-miterlimit:10;" d="M 214.09375 180.789062 L 223.992188 164.425781 "/>
<path style="fill:none;stroke-width:1.2;stroke-linecap:butt;stroke-linejoin:miter;stroke:rgb(0%,0%,0%);stroke-opacity:1;stroke-miterlimit:10;" d="M 208.042969 199.480469 L 217.261719 216.238281 "/>
<path style="fill:none;stroke-width:1.2;stroke-linecap:butt;stroke-linejoin:miter;stroke:rgb(100%,0%,0%);stroke-opacity:1;stroke-miterlimit:10;" d="M 217.261719 216.238281 L 226.484375 232.992188 "/>
<path style=" stroke:none;fill-rule:nonzero;fill:rgb(100%,100%,100%);fill-opacity:1;" d="M 221.84375 157.253906 L 234.84375 157.253906 L 234.84375 176.253906 L 221.84375 176.253906 Z M 221.84375 157.253906 "/>
<g style="fill:rgb(100%,0%,0%);fill-opacity:1;">
  <use xlink:href="#glyph0-1" x="221.84375" y="172.105469"/>
</g>
<path style="fill:none;stroke-width:1.2;stroke-linecap:butt;stroke-linejoin:miter;stroke:rgb(100%,0%,0%);stroke-opacity:1;stroke-miterlimit:10;" d="M 226.484375 232.992188 L 245.605469 233.386719 "/>
<path style="fill:none;stroke-width:1.2;stroke-linecap:butt;stroke-linejoin:miter;stroke:rgb(0%,0%,0%);stroke-opacity:1;stroke-miterlimit:10;" d="M 245.605469 233.386719 L 264.726562 233.777344 "/>
<path style=" stroke:none;fill-rule:nonzero;fill:rgb(100%,100%,100%);fill-opacity:1;" d="M 220.484375 223.492188 L 233.484375 223.492188 L 233.484375 242.492188 L 220.484375 242.492188 Z M 220.484375 223.492188 "/>
<g style="fill:rgb(100%,0%,0%);fill-opacity:1;">
  <use xlink:href="#glyph0-1" x="220.484375" y="238.34375"/>
</g>
<path style="fill:none;stroke-width:1.2;stroke-linecap:butt;stroke-linejoin:miter;stroke:rgb(0%,0%,0%);stroke-opacity:1;stroke-miterlimit:10;" d="M 98.527344 133.21875 L 108.425781 116.855469 "/>
<path style="fill:none;stroke-width:1.2;stroke-linecap:butt;stroke-linejoin:miter;stroke:rgb(100%,0%,0%);stroke-opacity:1;stroke-miterlimit:10;" d="M 108.425781 116.855469 L 118.328125 100.492188 "/>
<path style="fill:none;stroke-width:1.2;stroke-linecap:butt;stroke-linejoin:miter;stroke:rgb(0%,0%,0%);stroke-opacity:1;stroke-miterlimit:10;" d="M 90.828125 128.558594 L 100.726562 112.195312 "/>
<path style="fill:none;stroke-width:1.2;stroke-linecap:butt;stroke-linejoin:miter;stroke:rgb(100%,0%,0%);stroke-opacity:1;stroke-miterlimit:10;" d="M 100.726562 112.195312 L 110.628906 95.832031 "/>
<path style="fill:none;stroke-width:1.2;stroke-linecap:butt;stroke-linejoin:miter;stroke:rgb(0%,0%,0%);stroke-opacity:1;stroke-miterlimit:10;" d="M 94.675781 130.890625 L 75.554688 130.496094 "/>
<path style="fill:none;stroke-width:1.2;stroke-linecap:butt;stroke-linejoin:miter;stroke:rgb(100%,0%,0%);stroke-opacity:1;stroke-miterlimit:10;" d="M 75.554688 130.496094 L 56.433594 130.105469 "/>
<path style=" stroke:none;fill-rule:nonzero;fill:rgb(100%,100%,100%);fill-opacity:1;" d="M 108.476562 88.664062 L 121.476562 88.664062 L 121.476562 107.664062 L 108.476562 107.664062 Z M 108.476562 88.664062 "/>
<g style="fill:rgb(100%,0%,0%);fill-opacity:1;">
  <use xlink:href="#glyph0-1" x="108.476562" y="103.515625"/>
</g>
<path style="fill:none;stroke-width:1.2;stroke-linecap:butt;stroke-linejoin:miter;stroke:rgb(100%,0%,0%);stroke-opacity:1;stroke-miterlimit:10;" d="M 56.433594 130.105469 L 47.214844 113.347656 "/>
<path style="fill:none;stroke-width:1.2;stroke-linecap:butt;stroke-linejoin:miter;stroke:rgb(0%,0%,0%);stroke-opacity:1;stroke-miterlimit:10;" d="M 47.214844 113.347656 L 37.992188 96.59375 "/>
<path style=" stroke:none;fill-rule:nonzero;fill:rgb(100%,100%,100%);fill-opacity:1;" d="M 50.433594 120.605469 L 63.433594 120.605469 L 63.433594 139.605469 L 50.433594 139.605469 Z M 50.433594 120.605469 "/>
<g style="fill:rgb(100%,0%,0%);fill-opacity:1;">
  <use xlink:href="#glyph0-1" x="50.433594" y="135.457031"/>
</g>
</g>
</svg>

<svg xmlns="http://www.w3.org/2000/svg" xmlns:xlink="http://www.w3.org/1999/xlink" width="300pt" height="300pt" viewBox="0 0 300 300"><defs><symbol overflow="visible"><path d="M.797 2.828v-14.11h8V2.83zm.906-.89h6.203v-12.33H1.703zm0 0"/></symbol><symbol overflow="visible" id="a"><path d="M6.313-10.594c-1.15 0-2.06.43-2.735 1.28-.68.857-1.015 2.017-1.015 3.486 0 1.47.335 2.633 1.015 3.484.676.856 1.586 1.28 2.735 1.28 1.144.002 2.05-.424 2.718-1.28.665-.85 1-2.015 1-3.484 0-1.47-.335-2.63-1-3.484-.667-.852-1.573-1.282-2.717-1.282zm0-1.28c1.632 0 2.94.546 3.92 1.64.978 1.093 1.47 2.562 1.47 4.406 0 1.844-.492 3.32-1.47 4.422-.98 1.093-2.288 1.64-3.92 1.64-1.65 0-2.96-.546-3.938-1.64-.98-1.102-1.47-2.578-1.47-4.422 0-1.844.49-3.313 1.47-4.406.977-1.094 2.29-1.64 3.938-1.64zm0 0"/></symbol><symbol overflow="visible" id="b"><path d="M1.578-11.672h2.125l5.172 9.766v-9.766h1.53V0H8.282L3.11-9.766V0H1.577zm0 0"/></symbol><symbol overflow="visible" id="c"><path d="M1.578-11.672h1.578v4.78H8.89v-4.78h1.58V0H8.89v-5.563H3.157V0H1.578zm0 0"/></symbol></defs><g><path fill="#fff" d="M0 0h300v300H0z"/><path d="M35.273 229.066l9.903-16.363" stroke-width="1.2" stroke="#000" stroke-miterlimit="10" fill="none"/><path d="M45.176 212.703l9.898-16.363M55.074 196.34l19.12.394" stroke-width="1.2" stroke="#f00" stroke-miterlimit="10" fill="none"/><path d="M74.195 196.734l19.12.39" stroke-width="1.2" stroke="#000" stroke-miterlimit="10" fill="none"/><path d="M49.074 186.84h13v19h-13zm0 0" fill="#fff"/><use xlink:href="#a" x="49.074" y="201.691" fill="#f00"/><path d="M89.375 199.297l9.22 16.754" stroke-width="1.2" stroke="#000" stroke-miterlimit="10" fill="none"/><path d="M98.594 216.05l9.222 16.76" stroke-width="1.2" stroke="#f00" stroke-miterlimit="10" fill="none"/><path d="M97.258 194.957l9.222 16.754" stroke-width="1.2" stroke="#000" stroke-miterlimit="10" fill="none"/><path d="M106.48 211.71l9.22 16.76" stroke-width="1.2" stroke="#f00" stroke-miterlimit="10" fill="none"/><path d="M93.316 197.125l19.8-32.727" stroke-width="1.2" stroke="#000" stroke-miterlimit="10" fill="none"/><path d="M105.758 221.137h13v19h-13zm0 0" fill="#fff"/><use xlink:href="#a" x="105.758" y="235.988" fill="#f00"/><path d="M113.117 164.398l38.242.786M113.117 164.398l-18.44-33.507M151.36 165.184l19.8-32.723M151.36 165.184l9.222 16.757" stroke-width="1.2" stroke="#000" stroke-miterlimit="10" fill="none"/><path d="M160.582 181.94l9.22 16.755" stroke-width="1.2" stroke="#00f" stroke-miterlimit="10" fill="none"/><path d="M171.16 132.46l-18.44-33.51M177.203 124.77L162.45 97.96M209.402 133.246l-38.242-.785M152.72 98.95l19.8-32.727M172.52 66.223l38.242.785M176.16 75.3l30.594.626M210.762 67.008l18.44 33.512M229.203 100.52l-19.8 32.726M219.523 99.133l-15.84 26.18" stroke-width="1.2" stroke="#000" stroke-miterlimit="10" fill="none"/><path d="M169.8 198.695l19.122.395" stroke-width="1.2" stroke="#00f" stroke-miterlimit="10" fill="none"/><path d="M188.922 199.09l19.12.39" stroke-width="1.2" stroke="#000" stroke-miterlimit="10" fill="none"/><path d="M157.8 189.195h24v19h-24zm0 0" fill="#fff"/><g fill="#00f"><use xlink:href="#b" x="157.801" y="204.047"/><use xlink:href="#c" x="169.77" y="204.047"/></g><path d="M211.895 201.813l9.898-16.364" stroke-width="1.2" stroke="#000" stroke-miterlimit="10" fill="none"/><path d="M221.793 185.45l9.902-16.364" stroke-width="1.2" stroke="#f00" stroke-miterlimit="10" fill="none"/><path d="M204.19 197.152l9.904-16.363" stroke-width="1.2" stroke="#000" stroke-miterlimit="10" fill="none"/><path d="M214.094 180.79l9.898-16.364" stroke-width="1.2" stroke="#f00" stroke-miterlimit="10" fill="none"/><path d="M208.043 199.48l9.22 16.758" stroke-width="1.2" stroke="#000" stroke-miterlimit="10" fill="none"/><path d="M217.262 216.238l9.222 16.754" stroke-width="1.2" stroke="#f00" stroke-miterlimit="10" fill="none"/><path d="M221.844 157.254h13v19h-13zm0 0" fill="#fff"/><use xlink:href="#a" x="221.844" y="172.105" fill="#f00"/><path d="M226.484 232.992l19.12.395" stroke-width="1.2" stroke="#f00" stroke-miterlimit="10" fill="none"/><path d="M245.605 233.387l19.122.39" stroke-width="1.2" stroke="#000" stroke-miterlimit="10" fill="none"/><path d="M220.484 223.492h13v19h-13zm0 0" fill="#fff"/><use xlink:href="#a" x="220.484" y="238.344" fill="#f00"/><path d="M98.527 133.22l9.9-16.365" stroke-width="1.2" stroke="#000" stroke-miterlimit="10" fill="none"/><path d="M108.426 116.855l9.902-16.363" stroke-width="1.2" stroke="#f00" stroke-miterlimit="10" fill="none"/><path d="M90.828 128.56l9.9-16.365" stroke-width="1.2" stroke="#000" stroke-miterlimit="10" fill="none"/><path d="M100.727 112.195l9.902-16.363" stroke-width="1.2" stroke="#f00" stroke-miterlimit="10" fill="none"/><path d="M94.676 130.89l-19.12-.394" stroke-width="1.2" stroke="#000" stroke-miterlimit="10" fill="none"/><path d="M75.555 130.496l-19.12-.39" stroke-width="1.2" stroke="#f00" stroke-miterlimit="10" fill="none"/><path d="M108.477 88.664h13v19h-13zm0 0" fill="#fff"/><use xlink:href="#a" x="108.477" y="103.516" fill="#f00"/><path d="M56.434 130.105l-9.22-16.757" stroke-width="1.2" stroke="#f00" stroke-miterlimit="10" fill="none"/><path d="M47.215 113.348l-9.223-16.754" stroke-width="1.2" stroke="#000" stroke-miterlimit="10" fill="none"/><path d="M50.434 120.605h13v19h-13zm0 0" fill="#fff"/><use xlink:href="#a" x="50.434" y="135.457" fill="#f00"/></g></svg>
